!!!!SEGMENT: pl-wtm--ii-30-052_orlowski-antoni--polonez.krn
!!!cenid: 18xx:4385
!!!COM: Orłowski, Antoni
!!!COM-rismID: pe30022346
!!!CDT: 1811-1861/02/11
!!!CNT: Polish
!!!OTL: Polonez
!!!PDT: 1829
!!!AGN:
!!!SMS-siglum: PL-Wtm
!!!SMS-shelfmark: II-30.052
!!!SMS-shelfwork: W
!!!SMS-variant:
!!!SMS-altvar:
!!!NIFC-rismSourceID: 1001133388
!!!NIFC-rismChildID: 1001133388
!!!NIFC-islandoraID: pl-wtm:5863
!!!URL-pdf-islandora: https://repozytorium.nifc.pl/islandora/object/pl-wtm:5863/datastream/PDF/view
!!!URL-scan: https://polish.musicsources.pl/pl/lokalizacje/galeria/druki-muzyczne/15888/2 @EN{Scan on Polish Music Sources Website} @PL{Skany w portalu Dziedzictwo Muzyki Polskiej w otwartym dostępie}
!!!ONB-nifc:
!!!AIN: 1 piano
!!!key:
**kern	**kern	**dynam
*part1	*part1	*part1
*staff2	*staff1	*
*	*I"PIANOFORTE	*
*	*I'pf	*
*	*Ipiano	*
*	*ICklav	*
*	*IGsolo	*
*clefF4	*clefG2	*
*k[f#c#g#d#]	*k[f#c#g#d#]	*
*A:	*A:	*
*M3/4	*M3/4	*
*>[A,B,B,C,C,B,B,C,C,D,D,E,E,D,D,E,E]	*>[A,B,B,C,C,B,B,C,C,D,D,E,E,D,D,E,E]	*
=1	=1	=1
*>A	*>A	*
2.r	4.e/	.
.	16e/LL	.
.	16e/JJ	.
.	8g#/L	.
.	8b/J	.
=2	=2	=2
2.r	8ee\L	.
.	16b\L	.
.	16b\JJ	.
.	8ee\L	.
.	8b\	.
.	8g#\	.
.	8b\J	.
=3	=3	=3
*	*	*^
*tremolo	*tremolo	*	*
!	!	!LO:DY:b:rj	!LO:DY:b=2:rj
8E\L 8e	16ee\LL 16gg#	f	f
.	16b\	.	.
8E\ 8e	16ee\ 16gg#	.	.
.	16b\	.	.
8E\ 8e	16ee\ 16gg#	.	.
.	16b\	.	.
8E\J 8e	16ee\ 16gg#	.	.
.	16b\JJ	.	.
*Xtremolo	*Xtremolo	*	*
8D#\L 8d#	16ff#\LL 16gg#	.	.
.	16b#X\	.	.
8D#\J 8d#	16ff#\ 16gg#	.	.
.	16b#\JJ	.	.
*	*	*v	*v
=4	=4	=4
*tremolo	*tremolo	*
8C#\L 8c#	16ee\LL 16gg#	.
.	16cc#\	.
8C#\ 8c#	16ee\ 16gg#	.
.	16cc#\	.
8C#\ 8c#	16ee\ 16gg#	.
.	16cc#\	.
8C#\J 8c#	16ee\ 16gg#	.
.	16cc#\JJ	.
*Xtremolo	*Xtremolo	*
8BB\L 8B	16ee\LL 16ggn	.
.	16cc#\	.
8BB\J 8B	16ee\ 16gg	.
.	16cc#\JJ	.
=5	=5	=5
*^	*	*
4A#X/	8AA\L	8cc#\L 8ee 8ff#	.
.	8F#\J 8A# 8e	16ee\L 16ccc#	.
.	.	16ee\JJ 16ccc#	.
*v	*v	*	*
*tremolo	*	*
*^	*	*
8F#\L 8A# 8e	2ryy	8ee\L 8ccc#	.
8F#\ 8A# 8e	.	8ee\J 8ccc#	.
8F#\ 8A# 8e	.	16dd#X\LL 16bb#X	.
.	.	16ee\ 16ccc#	.
8F#\J 8A# 8e	.	16ff#\ 16ddd#	.
.	.	16ee\JJ 16ccc#	.
*v	*v	*	*
*Xtremolo	*	*
=6	=6	=6
8F#\L 8B 8d#	16bb\LL	.
.	16ddd#\	.
8F#\J 8c# 8e	16ff#\	.
.	16aa#X\JJ	.
*rep	*rep	*
8F#\L 8B 8d#	16bb\LL	.
.	16ddd#\	.
8F#\J 8c# 8e	16ff#\	.
.	16aa#\JJ	.
*Xrep	*Xrep	*
*rep	*rep	*
8F#\L 8B 8d#	16bb\LL	.
.	16ddd#\	.
8F#\J 8c# 8e	16ff#\	.
.	16aa#\JJ	.
*Xrep	*Xrep	*
!!LO:LB:g=original
=7	=7	=7
4B\ 4d#	16bb\LL	.
.	16aaa\	.
.	16fff#\	.
.	16ddd#\JJ	.
!	!	!LO:HP:b=2
2BB/ 2F# 2A	16bb\LL	>
.	16aa\	.
.	16ff#\	]
.	16dd#\JJ	.
.	8.ccc#\L	.
!	!LO:TX:a:t=[segno]	!
!	!LO:TX:b:t=[segno]	!
.	16bb\Jk	.
==8	==8	==8
*>B	*>B	*
!LO:TX:t=P:problem=mixed beam	!	!
8EE/L	8bb\L	fp
16E\L 16G# 16B 16e	16bb\L	.
16E\JJ 16G# 16B 16e	16bb\JJ	.
*ped	*	*
*tremolo	*	*
8E\L 8G# 8B 8e	8bb\L	.
8E\ 8G# 8B 8e	8bb\J	.
!	!LO:TX:b:i:t=brillante	!
!	!LO:TUP:a:r=4xbr	!
8E\ 8G# 8B 8e	(20aa#X\LL	.
.	20bb\	.
.	20ccc#\	.
8E\J 8G# 8B 8e	.	.
.	20bb\	.
.	20aa#\JJ)	.
*Xtremolo	*	*
=9	=9	=9
!LO:TX:t=P:problem=mixed beam	!	!
8EE/L	2bb\	.
16E\L 16G# 16B 16e	.	.
16E\JJ 16G# 16B 16e	.	.
*tremolo	*	*
8E\L 8G# 8B 8e	.	.
8E\ 8G# 8B 8e	.	.
8E\ 8G# 8B 8e	4gg#\	.
8E\J 8G# 8B 8e	.	.
*Xtremolo	*	*
=10	=10	=10
!LO:TX:t=P:problem=mixed beam	!	!
8EE/L	8gg#\L	.
16E\L 16G# 16B 16e	16gg#\L	.
16E\JJ 16G# 16B 16e	16gg#\JJ	.
*tremolo	*	*
8E\L 8G# 8B 8e	8gg#\L	.
8E\ 8G# 8B 8e	8gg#\J	.
8E\ 8G# 8B 8e	16aa\LL	.
.	16gg#\	.
8E\J 8G# 8B 8e	16ff#\	.
.	16gg#\JJ	.
*Xtremolo	*	*
=11	=11	=11
!LO:TX:t=P:problem=mixed beam	!	!
8BBB/L	2bb\	.
16F#\L 16A 16B 16d#	.	.
16F#\JJ 16A 16B 16d#	.	.
*tremolo	*	*
8F#\L 8A 8B 8d#	.	.
8F#\ 8A 8B 8d#	.	.
8F#\ 8A 8B 8d#	4aa\	.
8F#\J 8A 8B 8d#	.	.
*Xtremolo	*	*
!!LO:LB:g=original
=12	=12	=12
8BB\L	8bb\L	.
16F#\L 16A 16B 16d#	16bb\L	.
16F#\JJ 16A 16B 16d#	16bb\JJ	.
*tremolo	*	*
8F#\L 8A 8B 8d#	8bb\L	.
8F#\ 8A 8B 8d#	8ccc#\	.
8F#\ 8A 8B 8d#	8ddd#\	.
8F#\J 8A 8B 8d#	8eee\J	.
*Xtremolo	*	*
=13	=13	=13
8BB\L	8ggg#\	.
16F#\L 16A 16B 16d#	[8fff#\	.
16F#\JJ 16A 16B 16d#	.	.
*tremolo	*	*
8F#\L 8A 8B 8d#	8fff#\L]	.
8F#\ 8A 8B 8d#	8eee\	.
8F#\ 8A 8B 8d#	8ddd#\	.
8F#\J 8A 8B 8d#	8ccc#\J	.
*Xtremolo	*	*
=14	=14	=14
8BB\L	8.ccc#\L	.
8D#\J 8A	.	.
.	16bb\Jk	.
*rep	*rep	*
8BB\L	8.ccc#\L	.
8D#\J 8A	.	.
.	16bb\Jk	.
*Xrep	*Xrep	*
*rep	*rep	*
8BB\L	8.ccc#\L	.
8D#\J 8A	.	.
.	16bb\Jk	.
*Xrep	*Xrep	*
=15	=15	=15
4E\ 4G#	16bb\LL	.
.	16ccc#\	.
.	16ddd#\	.
.	16eee\JJ	.
4EE/	16bb\LL	.
.	16b\	.
.	16a#X\	.
.	16b\JJ	.
4r	16cc#\LL	.
.	16dd#\	.
.	16ee\	.
.	16ff#\JJ	.
=16	=16	=16
*	*	*^
*tremolo	*tremolo	*	*
!	!	!LO:DY:b:rj	!LO:DY:b=2:rj
8BB#X\L 8B#X	16dd#\LL 16gg#	f	f
.	16g#\	.	.
8BB#\ 8B#	16dd#\ 16gg#	.	.
.	16g#\	.	.
8BB#\ 8B#	16dd#\ 16gg#	.	.
.	16g#\	.	.
8BB#\ 8B#	16dd#\ 16gg#	.	.
.	16g#\JJ	.	.
*	*Xtremolo	*	*
8BB#\ 8B#	16dd#\LL 16ff#	.	.
.	16g#\	.	.
8BB#\J 8B#	16dd#\ 16ff#	.	.
.	16g#\JJ	.	.
*Xtremolo	*	*	*
*	*	*v	*v
!!LO:LB:g=original
=17	=17	=17
8BBn\L 8Bn	16ddn\LL 16ee#X	.
.	16g#\	.
8BB\J 8B	16dd\ 16ee#	.
.	16g#\JJ	.
8AA\L 8A	16cc#\LL 16ff#	.
.	16f#\	.
8AA\J 8A	16cc#\ 16ff#	.
.	16f#\JJ	.
8AA\L 8A	16cc#\LL 16ee#	.
.	16f#\	.
8AA#X\J 8A#X	16cc#\ 16een	.
.	16gn\JJ	.
=18	=18	=18
4BB\ 4B	8g#X/ 8b 8ee	.
.	16eee\LL	.
.	16ddd#\JJ	.
4r	16ccc#\LL	.
.	16bb\	.
.	16aa\	.
.	16gg#\JJ	.
4r	16ff#\LL	.
.	16ee\	.
.	16dd#\	.
.	16cc#\JJ	.
=19	=19	=19
8BB\L 8D# 8A	16b\LL	.
.	16aa\	.
8BB\J 8D# 8A	16ff#\	.
.	16dd#\JJ	.
8r	4ff#\	.
8BB\ 8D# 8A	.	.
4E\ 4G#	8ee\	.
.	8r	.
=20:|!|:	=20:|!|:	=20:|!|:
*>C	*>C	*
*tremolo	*	*
!	!	!LO:DY:b:t=ff&colon;:rj
16BB\LL 16D# 16F#	8b\L	ff
16B\	.	.
16BB\ 16D# 16F#	8dd#\	.
16B\	.	.
16BB\ 16D# 16F#	8ff#\	.
16B\	.	.
16BB\ 16D# 16F#	8bb\J	.
16B\	.	.
16BB\ 16D# 16F#	8ddd#\L	.
16B\	.	.
16BB\ 16D# 16F#	8fff#\J	.
16B\JJ	.	.
*Xtremolo	*	*
=21	=21	=21
!	!LO:TX:t=P:problem=mixed beam	!
8.BB/L 8.D# 8.F#	8.bbb\L	.
16BBB/Jk 16BB	16B/Jk	.
2BBB/ 2BB	2B/	>]
!!LO:LB:g=original
=22	=22	=22
*tremolo	*	*
16E\LL 16Gn	8e/L	.
16B\	.	.
16E\ 16G	8gn/	.
16B\	.	.
16E\ 16G	8b/	.
16B\	.	.
16E\ 16G	8ee/J	.
16B\	.	.
16E\ 16G	8ggn\L	.
16B\	.	.
16E\ 16G	8bb\J	.
16B\JJ	.	.
*Xtremolo	*	*
=23	=23	=23
*	*	*^
!	!LO:TX:t=P:problem=mixed beam	!	!
8.E\L 8.Gn	8.eee\L	.	.
16EE\Jk 16E	16e/Jk	.	.
!	!	!	!LO:HP:b=2
2EE/ 2E	2e/	>]	>]
*	*	*v	*v
=24	=24	=24
!LO:TX:t=P:problem=mixed beam	!LO:TX:b:i:t=dolce	!LO:DY:rj
8FF#/L	8f#/ 8a#X	p
8F#\J	4a#/ 4cc#	.
*tremolo	*	*
(8A#X\L 8e	.	.
8F#\	4cc#/ 4ee	.
8A#\ 8e	.	.
8F#\J)	8ee/ 8gg#	.
*Xtremolo	*	*
=25	=25	=25
8BB\L	8cc##X\L 8ee#X	.
8F#\J	8dd#\J 8ff#	.
*tremolo	*	*
(8B\L 8d#	4.een^<\ 4.gg#	.
8F#\	.	.
8B\ 8d#	.	.
8F#\J)	8dd#\ 8ff#	.
*Xtremolo	*	*
=26	=26	=26
!LO:TX:t=P:problem=mixed beam	!	!
8FF#/L	8b#X\L 8dd#	.
8F#\J	8cc#\J 8ee	.
*tremolo	*	*
(8A#X\L 8e	4.dd#^<\ 4.ff#	.
8F#\	.	.
8A#\ 8e	.	.
8F#\J)	8cc#\ 8ee	.
*Xtremolo	*	*
=27	=27	=27
8BB\L	8a#X\L 8cc##X	.
8F#\J	8b\J 8dd#	.
*tremolo	*	*
!	!LO:N:n=1:acc=n#	!
(8B\L 8d#	4.cc#X^<\ 4.ee	.
8F#\	.	.
8B\ 8d#	.	.
8F#\J)	8b\ 8dd#	.
*Xtremolo	*	*
=28	=28	=28
*^	*	*
*tremolo	*	*	*
(<8A/L	2.BB\	8b\ 8dd#	.
8B/	.	4dd#\ 4ff#	.
8A/	.	.	.
8B/	.	4ff#\ 4aa	.
8A/	.	.	.
8B/J)	.	8aa\ 8ccc#	.
*Xtremolo	*	*	*
!!LO:PB:g=original
=29	=29	=29	=29
*tremolo	*	*	*
(<8E/L 8G#	2BB\	8ff##X\L 8aa#X	.
8B/	.	8gg#\J 8bb	.
8E/ 8G#	.	4.aan\ 4.ccc#	.
8B/	.	.	.
8E/ 8G#	4ryy	.	.
8B/J)	.	8gg#\ 8bb	.
*Xtremolo	*	*	*
=30	=30	=30	=30
*tremolo	*	*	*
(<8D#/L 8A	2.BB\	8ee#X\L 8gg#	.
8B/	.	8ff#\J 8aa	.
8D#/ 8A	.	4.gg#\ 4.bb	.
8B/	.	.	.
8D#/ 8A	.	.	.
8B/J)	.	8ff#\ 8aa	.
*Xtremolo	*	*	*
=31	=31	=31	=31
*	*^	*	*
*	*	*tremolo	*	*
2cn/	2.Cn\	8E/L	(4.gn\ 4.ggn	.
.	.	8Gn/	.	.
.	.	8E/	.	.
.	.	8G/J	8ccn\ 8cccn	.
*	*	*Xtremolo	*	*
4B/	.	8Fn/L	8ddn\L 8dddn	.
.	.	8G/J	8gg\J) 8gggny	.
=32	=32	=32	=32	=32
*	*	*tremolo	*	*
2cn/	2.Cn\	8E/L	2ggn\ 2gggn	.
.	.	8Gn/	.	.
.	.	8E/	.	.
.	.	8G/J	.	.
*	*	*Xtremolo	*	*
4B/	.	8Fn/L	4gn\ 4ggn	.
.	.	8G/J	.	.
=33	=33	=33	=33	=33
*	*	*tremolo	*	*
2cn/	2.Cny\	8E/L	(4.gn\ 4.ggn	.
.	.	8Gn/	.	.
.	.	8E/	.	.
.	.	8G/J	8ccn\ 8cccn	.
*	*	*Xtremolo	*	*
4B/	.	8Fn/L	8ddn\L 8dddn	.
.	.	8G/J	8gg\J) 8gggny	.
=34	=34	=34	=34	=34
*	*	*tremolo	*	*
2cn/	2.Cny\	8E/L	2ggn\ 2gggn	.
.	.	8Gn/	.	.
.	.	8E/	.	.
.	.	8G/J	.	.
*	*	*Xtremolo	*	*
4B/	.	8Fn/L	4gn\ 4ggn	.
.	.	8G/J	.	.
*v	*v	*v	*	*
=35	=35	=35
*	*tremolo	*
4Cn\ 4E 4Gn 4cn	16e/LL 16gn	p
.	16ee/	.
.	16e/ 16g	.
.	16ee/	.
!	!	!LO:DY:b=2
4C\ 4c	16e/ 16g	f
.	16ee/	.
.	16e/ 16g	.
.	16ee/	.
4BB\ 4B	16e/ 16g	<
.	16ee/	.
.	16e/ 16g	.
.	16ee/JJ	.
=36	=36	=36
2.AA#X/ 2.A#X	16e/LL 16gn	.
.	16ee/	.
.	16e/ 16g	.
.	16ee/	.
.	16e/ 16g	.
.	16ee/	.
.	16e/ 16g	.
.	16ee/	.
.	16e/ 16g	.
.	16ee/	.
.	16e/ 16g	.
.	16ee/JJ	[
*	*Xtremolo	*
!!LO:LB:g=original
=37	=37	=37
*	*^	*
4BB\ 4B	4dd#/	8d#\L 8f#	.
.	.	16b\L 16bb	.
.	.	16b\JJ 16bb	.
4BB\ 4F# 4A 4B	8b\L 8bb	2ryy	.
.	16b\L 16bb	.	.
.	16b\JJ 16bb	.	.
4BB\ 4E 4G# 4B	8b\L 8bb	.	.
.	16b\L 16bb	.	.
.	16b\JJ 16bb	.	.
*	*v	*v	*
=38	=38	=38
!	!LO:TX:t=P:problem=mixed beam	!
8.BB/L 8.D# 8.F# 8.B	8.b\L 8.bb	.
16BBB/Jk 16BB	16B/Jk	.
!LO:TX:t=P:problem=mixed beam	!	!
8BBB/L 8BB	8B/	.
8F#\ 8A	8r	.
!	!LO:TX:b:i:t=Dal Segno.	!
!	!LO:TX:a:t=[segno]	!
8E\ 8G#	4r	.
8BB\J 8F#	.	.
!!LO:LB:g=original
*clefG2	*	*
==39	==39	==39
*>D	*>D	*
*k[f#c#g#]	*k[f#c#g#]	*
*M3/4	*M3/4	*
!	!LO:TX:a:t=Trio	!
2A/ 2c# 2e	2cc#\	.
4B/ 4d 4g#	8.ee\L	.
.	16ee\Jk	.
=40	=40	=40
2.c#/ 2.e 2.a	2aa\	.
.	4aa\	.
*clefF4	*	*
=41	=41	=41
4C#\ 4E 4A	4ee\	.
4C#\ 4E 4A	(8ff#\L	.
.	8ee\	.
4C#\ 4E 4A	8dd\	.
.	8cc#\J)	.
=42	=42	=42
2BB\ 2D 2F# 2B	8.ff#\L	.
.	16dd\Jk	.
.	4b\	.
4r	4r	.
=43	=43	=43
*clefG2	*	*
(4B/ 4d	(4dd\ 4ddd	.
4c#/ 4e	4ee\ 4eee	.
4d/) 4f#	4ff#\) 4fff#	.
=44	=44	=44
*clefF4	*	*
.	8qb/	.
2E\ 2G# 2d	2bb\	.
4E\ 4A 4c#	4ccc#\	.
=45	=45	=45
4E\ 4G# 4B	4dddT\	.
4E\ 4G# 4B	8.fff#\L	.
.	16eee\Jk	.
4E\ 4G# 4B	16ddd#X\LL	.
.	16eee\	.
.	16bb\	.
.	16eee\JJ	.
!!LO:LB:g=original
=46	=46	=46
*^	*	*
4G#/	2AA\ 2E	4ddd\	.
!	!	!LO:TX:t=P:problem=mixed beam	!
4A/	.	8ccc#\L	.
.	.	(8e/	.
4rA	4rAA	8a/	.
.	.	8b/J)	.
*v	*v	*	*
=47	=47	=47
4AA/ 4C# 4E 4A	4cc#t\	.
.	16qqb/LL	.
.	16qqcc#/JJ	.
2BB/ 2D 2E 2G#	8.ee\L	.
.	16dd#X\Jk	.
.	16ddn\LL	.
.	16cc#\	.
.	16dd\	.
.	16b\JJ	.
=48	=48	=48
*^	*	*
4C#/ 4E 4A	4ryy	4eeT\	.
4A#X/	2D\ 2F#	8.gg#\L	.
.	.	16ff#\Jk	.
4B/	.	16ee\LL	.
.	.	16dd\	.
.	.	16cc#\	.
.	.	16b\JJ	.
*v	*v	*	*
=49	=49	=49
8E\L 8A 8c#	(16a\LL	.
.	16ccc#\)	.
8E\J 8A 8c#	(16gg#\	.
.	16aa\JJ)	.
4E\ 4A 4c#	(16dd#X\LL	.
.	16ee\)	.
.	(16b#X\	.
.	16cc#\JJ)	.
4r	(16g#\LL	.
.	16a\	.
.	16ff#\	.
.	16ee\JJ)	.
=50	=50	=50
!LO:TX:t=P:problem=mixed beam	!	!
8EE/L	8ee\L	.
8E\J 8G# 8d	16g#\L	.
.	16b\JJ	.
8r	4b\	.
8E\ 8G# 8d	.	.
8A\ 8c#	8a\	.
8r	8r	.
!!LO:LB:g=original
=51:|!|:	=51:|!|:	=51:|!|:
*>E	*>E	*
*^	*	*
*tremolo	*	*	*
16G#/LL 16B	4.E\	8dd\L	.
16d/	.	.	.
16G#/ 16B	.	16cc#\L	.
16d/	.	16ee\JJ	.
16G#/ 16B	.	4.dd\	.
16d/	.	.	.
16G#/ 16B	8Fn\	.	.
16d/	.	.	.
16G#/ 16B	4E\	.	.
16d/	.	.	.
16G#/ 16B	.	16b\LL	.
16d/JJ	.	16cc#\JJ	.
=52	=52	=52	=52
16G#/LL 16B	4.E\	8dd\L	.
16d/	.	.	.
16G#/ 16B	.	16cc#\L	.
16d/	.	16ee\JJ	.
16G#/ 16B	.	4.dd\	.
16d/	.	.	.
16G#/ 16B	8Fn\	.	.
16d/	.	.	.
16G#/ 16B	4E\	.	.
16d/	.	.	.
16G#/ 16B	.	16b\LL	.
16d/JJ	.	16dd\JJ	.
*Xtremolo	*	*	*
*v	*v	*	*
=53	=53	=53
16F#\LL 16A	4cc#\ 4ccc#	.
16c#\	.	.
16F#\ 16A	.	.
16c#\JJ	.	.
16F#\LL 16A	4aa\ 4aaa	.
16c#\	.	.
16F#\ 16A	.	.
16c#\JJ	.	.
16BB\LL 16F#	4dd#X\ 4ddd#X	.
16A\	.	.
16BB\ 16F#	.	.
16A\JJ	.	.
=54	=54	=54
4E\ 4G#	8ee\L 8eee	.
.	16dddn\L	.
.	16bb\JJ	.
4r	16gg#\LL	.
.	16ee\	.
.	16dd\	.
.	16b\JJ	.
!	!LO:TX:b:t=Da Capo Trio.	!
4r	4g#/	.
==	==	==
*-	*-	*-
!!!system-decoration: {(s1,s2)}
!!!RDF**kern: < = below
!!!RDF**kern: > = above
!!!ENC: Filip Voros
!!!END: 2023-07-08
!!!ENC: Marta Chmielewska
!!!END: 2023-07-13
!!!YEC: Copyright 2022 Narodowy Instytut Fryderyka Chopina (https://polishscores.org)
!!!YEM: License CC-BY-4.0 (https://creativecommons.org/licenses/by/4.0)
